Adwaita++-Light/panel/24/transmission-panel.svg

<svg height="24" width="24" xmlns="http://www.w3.org/2000/svg">
  <g fill="#444">
    <path d="m8.5 4c-.831 0-1.5.669-1.5 1.5s.669 1.5 1.5 1.5h6c.831 0 1.5-.669 1.5-1.5s-.669-1.5-1.5-1.5zm-1.3222656 5c-.6529286 0-1.1777344.524806-1.1777344 1.177734v8.644532c0 .652928.5248058 1.177734 1.1777344 1.177734h8.6445316c.652928 0 1.177734-.524806 1.177734-1.177734v-8.644532c0-.652928-.524806-1.177734-1.177734-1.177734h-2.822266v2.75l1.5 1.25h-1.5v1 2h1.5l-3 2.5-3-2.5h1.5v-2-1h-1.5l1.5-1.25v-2.75z"/>
    <path d="m10-14h3v9h-3z" opacity=".3" transform="scale(1 -1)"/>
  </g>
</svg>

<svg xmlns="http://www.w3.org/2000/svg" width="24" height="24" version="1.1">
 <defs>
  <style id="current-color-scheme" type="text/css">
   .ColorScheme-Text { color:#444444; } .ColorScheme-Highlight { color:#4285f4; }
  </style>
 </defs>
 <path style="fill:currentColor" class="ColorScheme-Text" d="M 8.5,4 C 7.669,4 7,4.669 7,5.5 7,6.331 7.669,7 8.5,7 h 6 C 15.331,7 16,6.331 16,5.5 16,4.669 15.331,4 14.5,4 Z M 7.1777344,9 C 6.5248058,9 6,9.524806 6,10.177734 v 8.644532 C 6,19.475194 6.5248058,20 7.1777344,20 H 15.822266 C 16.475194,20 17,19.475194 17,18.822266 V 10.177734 C 17,9.524806 16.475194,9 15.822266,9 H 13 v 2.75 L 14.5,13 H 13 v 1 2 h 1.5 l -3,2.5 -3,-2.5 H 10 V 14 13 H 8.5 L 10,11.75 V 9 Z"/>
 <rect width="3" height="9" x="10" y="-14" transform="scale(1,-1)" style="opacity:0.3;fill:currentColor" class="ColorScheme-Text"/>
</svg>
